Origami/22x22/apps/freeciv-client.svg

<svg width="22" height="22" version="1" xmlns="http://www.w3.org/2000/svg">
 <path d="M 20.9895,11.209 A 10,10 0 0 1 11,21 10,10 0 0 1 1.011,11.291 10,10 0 0 0 1,11.5 a 10,10 0 0 0 10,10 10,10 0 0 0 10,-10 10,10 0 0 0 -0.0105,-0.291 z" style="opacity:.2"/>
 <circle cx="11" cy="11" r="10" style="fill:#cba606"/>
 <circle cx="11" cy="11.5" r="8" style="opacity:.2"/>
 <path d="m11 1c-5.5395 0-9.999 4.46-9.999 10 0 0.08386-2e-3 0.166645 0 0.25 0.1321-5.423 4.5435-9.75 9.999-9.75s9.867 4.3268 9.999 9.75c2e-3 -0.08335 0-0.16614 0-0.25 0-5.54-4.4595-10-9.999-10z" style="fill:#ffffff;opacity:.2"/>
 <circle cx="11" cy="11" r="8" style="fill:#e4d487"/>
 <path d="m10.2444 3.04296a8 8 0 0 0 -2.8952 0.83984c0.0404 0.12804-0.0068 0.27248-0.154 0.4-0.0996 0.08632-0.1812 0.22076-0.1812 0.29924 0 0.23988 0.2168 0.6082 0.39 0.66172 0.23 0.0712 0.1528 0.31664-0.1432 0.45224-0.1368 0.0628-0.3052 0.2436-0.374 0.4016-0.0692 0.1584-0.1708 0.3144-0.226 0.3468-0.0548 0.0328-0.1 0.1564-0.1 0.2752 0 0.166 0.076 0.2464 0.3252 0.346 0.1784 0.0716 0.392 0.1236 0.4748 0.1156 0.4764-0.0448 0.5096 0.2328 0.0932 0.7752-0.2212 0.288-0.3276 0.3604-0.4784 0.324-0.1404-0.0336-0.2172 6e-3 -0.2812 0.1452-0.0672 0.1476-0.1776 0.1976-0.474 0.218-0.2916 0.0204-0.422 0.0796-0.5312 0.2392-0.08 0.1164-0.1952 0.2108-0.2564 0.2108-0.06136 0-0.20544 0.0784-0.32032 0.1736-0.23376 0.194-0.32504 0.2136-0.407 0.08681-0.10832-0.168-0.34204-0.0832-0.68984 0.25-0.3076 0.2944-0.34484 0.3732-0.29844 0.6288 0.08256 0.4548 0.32924 0.8584 0.61092 0.9992 0.2458 0.1228 0.2506 0.136 0.10156 0.2936-0.08572 0.09079-0.2328 0.188-0.32656 0.2164-0.2708 0.0824-0.11836 0.1856 0.36484 0.2472 0.49456 0.06279 0.64824 0.242 0.4172 0.4864-0.12884 0.13639-0.1216 0.16199 0.0851605 0.29159 0.4039995 0.2536 0.7252795 0.0984 0.3460795-0.1672-0.24372-0.1708-0.07328-0.2404 0.2844-0.1164 0.2852 0.0988 0.3416 0.0932 0.51-0.0532 0.346-0.2996 0.722 0.1436 0.4056 0.478-0.2012 0.2132-0.1404 0.47 0.1204 0.5056 0.1152 0.0156 0.3544 0.1228 0.532 0.2384 0.1776 0.1152 0.3712 0.21 0.4296 0.21s0.2232 0.1172 0.3664 0.2604c0.2904 0.29 0.4516 0.3268 0.5336 0.1224 0.0984-0.2456 0.0588-0.3724-0.2064-0.6616-0.2108-0.2304-0.5536-0.8424-0.5536-0.9892 0-0.0904 0.3484-0.0136 0.5436 0.1196 0.122 0.08359 0.3196 0.1912 0.4392 0.24 0.1272 0.052 0.2592 0.2136 0.3196 0.3904 0.094 0.2776 0.1312 0.3016 0.464 0.3016h0.3616l0.0548 0.65c0.0656 0.782 0.1284 0.9404 0.3968 1.0048 0.1976 0.0476 0.4084 0.3536 0.4084 0.5928 0 0.0636-0.142 0.2196-0.3156 0.3464-0.2152 0.1572-0.308 0.2908-0.2936 0.4216 0.01799 0.1636-0.0192 0.1892-0.2508 0.172-0.1492-0.0112-0.4084 0.0412-0.5748 0.1164-0.1972 0.0888-0.4108003 0.1172-0.6112003 0.08121-0.2304-0.04121-0.3084-0.0252-0.3084 0.0648 0 0.0664-0.0808 0.1904-0.1792 0.276-0.2432 0.2108-0.1428 0.3224 0.2308 0.2552 0.232-0.0416 0.3224-0.0232 0.3624 0.0768 0.0852 0.2124-0.1308 0.5164-0.3312 0.4664-0.1272-0.032-0.188 0.0116-0.2276 0.1616-0.0136 0.0532-0.0388 0.0984-0.0688 0.1368a8 8 0 0 0 1.2660003 0.374c-0.04-0.07641-0.0856-0.14601-0.13-0.17721-0.206-0.1456-0.068-0.524 0.2156-0.592 0.2892-0.0696 0.2436-0.2572-0.0708-0.2932-0.2756-0.0312-0.5688-0.3104-0.4768-0.4532 0.062-0.0956 0.3256-0.0816 0.8588 0.0448 0.2408 0.0568 0.4052-0.0576 0.9632-0.668 0.3228-0.3536 0.5712-0.5008 0.8436-0.5008 0.104 0 0.4748-0.0956 0.8244-0.2124 0.66-0.2212 0.918-0.2132 0.8936 0.028-0.0504 0.5016 0.2724 0.4848 0.7984-0.0408 0.2192-0.2188 0.4196-0.3772 0.4456-0.3524 0.1004 0.0964-0.08041 0.5656-0.2916 0.7556-0.2676 0.2408-0.2808 0.3928-0.04521 0.5132 0.1288 0.0664 0.1836 0.2004 0.204 0.5016l0.0272 0.4112h0.3344c0.1172 0 0.2144 0.016 0.2928 0.04599a8 8 0 0 0 3.876 -6.6024c-0.1224-0.2616-0.1136-0.4196 0-0.5976a8 8 0 0 0 -0.03599 -0.44839c-0.0728-0.0036-0.1472-0.0068-0.2328-0.0032-0.4032 0.0168-0.7484-0.142-0.7484-0.3444 0-0.04279-0.1432-0.2192-0.318-0.3916-0.1984-0.1952-0.3-0.368-0.2704-0.4576 0.0272-0.0816-0.0312-0.2132-0.1344-0.3024-0.1004-0.0872-0.1828-0.2272-0.1828-0.3112 0-0.134-0.0852-0.1508-0.7016-0.136l-0.7016 0.0172 0.012 0.6916c0.0208 1.2112 0.2012 1.5256 0.7576 1.3228 0.2548-0.0932 0.8808-0.0228 1.0588 0.1184 0.06441 0.0512 0.1576 0.2368 0.2068 0.4128 0.0496 0.1756 0.2328 0.48 0.408 0.6756 0.3544 0.3968 0.382 0.5516 0.1788 1.0172-0.1772 0.4064-0.3684 0.3596-0.3304-0.0812l0.028-0.328-0.3 0.056c-0.166 0.0316-0.374 0.154-0.4672 0.2752-0.1328 0.1724-0.1948 0.1976-0.2944 0.1188-0.0696-0.0552-0.126-0.1716-0.126-0.258s-0.0856-0.1824-0.1896-0.214c-0.1044-0.0316-0.2472-0.1888-0.3172-0.35-0.1124-0.2576-0.1096-0.3364 0.02119-0.6492 0.1324-0.3172 0.1336-0.3696 0.01161-0.4868-0.112-0.1072-0.17-0.1108-0.3172-0.0224-0.148 0.0884-0.218 0.082-0.394-0.036-0.1172-0.0788-0.3224-0.144-0.4552-0.144-0.27 0-0.3516-0.1312-0.3516-0.5656 0-0.4012-0.2392-0.5468-0.8088-0.4944-0.3952 0.0364-0.4824 0.0104-0.8012-0.2352-0.1972-0.1516-0.5084-0.5164-0.6924-0.8116s-0.382-0.6036-0.44-0.6852c-0.0832-0.118-0.0628-0.2312 0.1-0.5524l0.2056-0.404-0.4344 0.0588c-0.7728 0.1044-0.9292 0.2044-0.5968 0.3828 0.1296 0.0692 0.1352 0.1048 0.0352 0.2204-0.0656 0.0752-0.0964 0.1948-0.068 0.2656 0.02839 0.0704-0.0076 0.2368-0.0796 0.3692-0.0724 0.1328-0.1328 0.3188-0.1352 0.4144-0.0076 0.298-0.518 0.5352-1.0868 0.5036-0.8616-0.0476-0.9316-0.034-1.2376 0.25-0.3824 0.3552-0.4316 0.5204-0.2536 0.85 0.1724 0.32 0.4788 0.4476 1.0092 0.4212 0.4744-0.0236 0.528 0.0184 0.4196 0.332-0.09239 0.2664-0.402 0.3688-0.612 0.2024-0.1616-0.1284-0.7188-0.0292-0.8896 0.1588-0.0716 0.0784-0.178 0.2848-0.236 0.4576-0.1 0.2984-0.1292 0.3168-0.5772 0.36-0.4472 0.0436-0.4904 0.0292-0.812-0.2672-0.3588-0.3304-0.4196-0.5832-0.2468-1.0184 0.0768-0.1928 0.1336-0.2244 0.3384-0.1868 0.4056 0.074 0.5656-0.0668 0.5656-0.5 0-0.21-0.0408-0.4064-0.0908-0.436-0.0496-0.0296-0.0904-0.1408-0.0904-0.2476s-0.0512-0.2444-0.1132-0.3048c-0.0908-0.088-0.0776-0.1352 0.0672-0.2376 0.0992-0.07 0.2624-0.1172 0.3624-0.1052 0.0996 0.012 0.3752-0.0312 0.6124-0.0956 0.3428-0.0924 0.4436-0.1624 0.49-0.3428 0.088-0.3424 0.3028-0.6172 0.4828-0.6172 0.2844 0 0.2904-0.6688 0.013995-1.6416-0.040795-0.1436-0.153195-0.2348-0.351595-0.284-0.1608-0.04-0.3356-0.1496-0.3884-0.24392-0.0524-0.09432-0.1488-0.17112-0.214-0.17112s-0.1928-0.07808-0.2828-0.17344c-0.0908-0.096-0.2784-0.17344-0.4212-0.17344-0.338 0-0.3436-0.23272-0.0084-0.35544 0.354-0.12976 0.9052 0.04032 1.0384 0.32028 0.1804 0.37964 0.3808 0.22124 0.4452-0.35232 0.0796-0.7094 0.3244-0.91328 1.096-0.91328h0.5548l-0.2432-0.24296c-0.0756-0.07584-0.1384-0.16852-0.182-0.2594zm2.876 0.25156c-0.01559 0.01408-0.03079 0.0256-0.04599 0.0414-0.1856 0.18944-0.2728 0.21644-0.5596 0.17268-0.5008-0.07636-0.4364 0.12528 0.118 0.36876 0.2996 0.13164 0.4924 0.28172 0.558 0.43356 0.316 0.73264 0.5336 1.12708 0.6428 1.16708 0.2208 0.0812 0.3524-0.08176 0.4016-0.49832 0.0564-0.47792 0.218-0.57924 0.5084-0.31796 0.1128 0.1014 0.2704 0.18436 0.35 0.18436 0.2484 0 0.432 0.09972 0.432 0.2344 0 0.07096 0.084 0.24196 0.1868 0.38032 0.1516 0.2036 0.2544 0.2524 0.5376 0.2524 0.3476 0 0.5608 0.0652 0.996 0.3056 0.0068 0.00358 0.0136 0.0048 0.0204 0.0084a8 8 0 0 0 -4.14601 -2.73268zm-10.1188 7.6712a8 8 0 0 0 -0.00155 0.0344 8 8 0 0 0 0.15624 1.5368c0.28984 0.118 0.36992 0.0712 0.4-0.1984 0.01556-0.1396 0.08844-0.2976 0.16252-0.3524 0.11444-0.0844 0.093799-0.1276-0.14064-0.2876-0.15176-0.1036-0.30132-0.2844-0.33204-0.4016-0.02976-0.1136-0.1304-0.2376-0.24452-0.3312zm2.51804 2.6444c-0.0748-0.0076-0.16492 0.0324-0.26492 0.1284-0.21156 0.2024-0.1796 0.6092 0.06016 0.77 0.27476 0.1844 0.38076 0.1308 0.41556-0.2092 0.0428-0.4192-0.0468-0.672-0.2108-0.6892zm1.3576 1.2096c-0.0816 0.0027-0.1716 0.0612-0.2616 0.1844-0.0956 0.1304-0.1216 0.2988-0.0852 0.5544 0.0452 0.3144 0.0256 0.3816-0.1388 0.466-0.2116 0.108-0.2568 0.4296-0.0836 0.5952 0.172 0.1648 0.336 0.1216 0.3952-0.104 0.084-0.3216 0.5548-0.3592 0.8764-0.0704 0.1372 0.1232 0.2492 0.1856 0.2492 0.1384s-0.1428-0.2188-0.3172-0.3804c-0.2668-0.248-0.3164-0.3536-0.3164-0.6728 0-0.4504-0.138-0.7164-0.318-0.7108zm-2.22956 1.0328a8 8 0 0 0 0.18516 0.2336c-0.05452-0.0844-0.11676-0.1652-0.18516-0.2336zm2.69596 1.228c-0.0404 0.014-0.0576 0.0648-0.0576 0.154 0 0.0904-0.0576 0.1852-0.128 0.2108-0.0936 0.0344-0.1152 0.1428-0.0792 0.4016 0.0068 0.0484 0.0088 0.0872 0.0112 0.1276a8 8 0 0 0 0.3328 0.1708c-0.0056-0.1384 0.0196-0.3012 0.092-0.5052 0.1228-0.3464 0.1272-0.4332 0.0272-0.494-0.0936-0.0568-0.1576-0.07961-0.1984-0.0656z" style="opacity:.4"/>
 <path d="M 1.0419922,10.657227 A 10,10 0 0 0 1,11.5 10,10 0 0 0 1.1171875,12.961914 C 2.9379286,13.872888 6.7676105,15.5 11,15.5 c 4.230182,0 8.057964,-1.624877 9.879883,-2.536133 A 10,10 0 0 0 21,11.5 10,10 0 0 0 20.958008,10.657227 C 20.879735,10.703151 16.094405,13.5 11,13.5 5.905595,13.5 1.1202653,10.703151 1.0419922,10.657227 Z" style="opacity:.2"/>
 <path d="M 1.0419922,10.157227 A 10,10 0 0 0 1,11 10,10 0 0 0 1.1171875,12.461914 C 2.9379286,13.372888 6.7676105,15 11,15 c 4.230182,0 8.057964,-1.624877 9.879883,-2.536133 A 10,10 0 0 0 21,11 10,10 0 0 0 20.958008,10.157227 C 20.879735,10.203151 16.094405,13 11,13 5.905595,13 1.1202653,10.203151 1.0419922,10.157227 Z" style="fill:#cba606"/>
</svg>

<svg xmlns="http://www.w3.org/2000/svg" width="22" height="22" version="1">
 <path style="opacity:0.2" d="M 20.9895,11.209 A 10,10 0 0 1 11,21 10,10 0 0 1 1.011,11.291 10,10 0 0 0 1,11.5 a 10,10 0 0 0 10,10 10,10 0 0 0 10,-10 10,10 0 0 0 -0.0105,-0.291 z"/>
 <circle style="fill:#cba606" cx="11" cy="11" r="10"/>
 <circle style="opacity:0.2" cx="11" cy="11.5" r="8"/>
 <path style="opacity:0.2;fill:#ffffff" d="M 11,1 C 5.4605,1 1.001,5.46 1.001,11 c 0,0.08386 -0.002,0.166645 0,0.25 C 1.1331,5.827 5.5445,1.5 11,1.5 c 5.4555,0 9.867,4.3268 9.999,9.75 0.002,-0.08335 0,-0.16614 0,-0.25 C 20.999,5.46 16.5395,1 11,1 Z"/>
 <circle style="fill:#e4d487" cx="11" cy="11" r="8"/>
 <path style="opacity:0.4" d="M 10.2444,3.04296 A 8,8 0 0 0 7.3492,3.8828 C 7.3896,4.01084 7.3424,4.15528 7.1952,4.2828 7.0956,4.36912 7.014,4.50356 7.014,4.58204 c 0,0.23988 0.2168,0.6082 0.39,0.66172 C 7.634,5.31496 7.5568,5.5604 7.2608,5.696 7.124,5.7588 6.9556,5.9396 6.8868,6.0976 6.8176,6.256 6.716,6.412 6.6608,6.4444 c -0.0548,0.0328 -0.1,0.1564 -0.1,0.2752 0,0.166 0.076,0.2464 0.3252,0.346 C 7.0644,7.1372 7.278,7.1892 7.3608,7.1812 7.8372,7.1364 7.8704,7.414 7.454,7.9564 7.2328,8.2444 7.1264,8.3168 6.9756,8.2804 6.8352,8.2468 6.7584,8.2864 6.6944,8.4256 6.6272,8.5732 6.5168,8.6232 6.2204,8.6436 5.9288,8.664 5.7984,8.7232 5.6892,8.8828 5.6092,8.9992 5.494,9.0936 5.4328,9.0936 c -0.06136,0 -0.20544,0.0784 -0.32032,0.1736 -0.23376,0.194 -0.32504,0.2136 -0.407,0.08681 -0.10832,-0.168 -0.34204,-0.0832 -0.68984,0.25 -0.3076,0.2944 -0.34484,0.3732 -0.29844,0.6288 0.08256,0.4548 0.32924,0.8584 0.61092,0.9992 0.2458,0.1228 0.2506,0.136 0.10156,0.2936 -0.08572,0.09079 -0.2328,0.188 -0.32656,0.2164 -0.2708,0.0824 -0.11836,0.1856 0.36484,0.2472 0.49456,0.06279 0.64824,0.242 0.4172,0.4864 C 4.75632,12.612 4.76356,12.6376 4.9703205,12.7672 5.37432,13.0208 5.6956,12.8656 5.3164,12.6 5.07268,12.4292 5.24312,12.3596 5.6008,12.4836 c 0.2852,0.0988 0.3416,0.0932 0.51,-0.0532 0.346,-0.2996 0.722,0.1436 0.4056,0.478 -0.2012,0.2132 -0.1404,0.47 0.1204,0.5056 0.1152,0.0156 0.3544,0.1228 0.532,0.2384 0.1776,0.1152 0.3712,0.21 0.4296,0.21 0.0584,0 0.2232,0.1172 0.3664,0.2604 0.2904,0.29 0.4516,0.3268 0.5336,0.1224 C 8.5968,13.9996 8.5572,13.8728 8.292,13.5836 8.0812,13.3532 7.7384,12.7412 7.7384,12.5944 c 0,-0.0904 0.3484,-0.0136 0.5436,0.1196 0.122,0.08359 0.3196,0.1912 0.4392,0.24 0.1272,0.052 0.2592,0.2136 0.3196,0.3904 0.094,0.2776 0.1312,0.3016 0.464,0.3016 h 0.3616 l 0.0548,0.65 c 0.0656,0.782 0.1284,0.9404 0.3968,1.0048 0.1976,0.0476 0.4084,0.3536 0.4084,0.5928 0,0.0636 -0.142,0.2196 -0.3156,0.3464 -0.2152,0.1572 -0.308,0.2908 -0.2936,0.4216 0.01799,0.1636 -0.0192,0.1892 -0.2508,0.172 -0.1492,-0.0112 -0.4084,0.0412 -0.5748,0.1164 -0.1972,0.0888 -0.4108003,0.1172 -0.6112003,0.08121 -0.2304,-0.04121 -0.3084,-0.0252 -0.3084,0.0648 0,0.0664 -0.0808,0.1904 -0.1792,0.276 -0.2432,0.2108 -0.1428,0.3224 0.2308,0.2552 0.232,-0.0416 0.3224,-0.0232 0.3624,0.0768 0.0852,0.2124 -0.1308,0.5164 -0.3312,0.4664 -0.1272,-0.032 -0.188,0.0116 -0.2276,0.1616 -0.0136,0.0532 -0.0388,0.0984 -0.0688,0.1368 A 8,8 0 0 0 9.4244,18.84281 C 9.3844,18.7664 9.3388,18.6968 9.2944,18.6656 9.0884,18.52 9.2264,18.1416 9.51,18.0736 9.7992,18.004 9.7536,17.8164 9.4392,17.7804 9.1636,17.7492 8.8704,17.47 8.9624,17.3272 c 0.062,-0.0956 0.3256,-0.0816 0.8588,0.0448 0.2408,0.0568 0.4052,-0.0576 0.9632,-0.668 0.3228,-0.3536 0.5712,-0.5008 0.8436,-0.5008 0.104,0 0.4748,-0.0956 0.8244,-0.2124 0.66,-0.2212 0.918,-0.2132 0.8936,0.028 -0.0504,0.5016 0.2724,0.4848 0.7984,-0.0408 0.2192,-0.2188 0.4196,-0.3772 0.4456,-0.3524 0.1004,0.0964 -0.08041,0.5656 -0.2916,0.7556 -0.2676,0.2408 -0.2808,0.3928 -0.04521,0.5132 0.1288,0.0664 0.1836,0.2004 0.204,0.5016 l 0.0272,0.4112 h 0.3344 c 0.1172,0 0.2144,0.016 0.2928,0.04599 a 8,8 0 0 0 3.876,-6.6024 c -0.1224,-0.2616 -0.1136,-0.4196 0,-0.5976 A 8,8 0 0 0 18.9516,10.2048 c -0.0728,-0.0036 -0.1472,-0.0068 -0.2328,-0.0032 -0.4032,0.0168 -0.7484,-0.142 -0.7484,-0.3444 0,-0.04279 -0.1432,-0.2192 -0.318,-0.3916 C 17.454,9.2704 17.3524,9.0976 17.382,9.008 17.4092,8.9264 17.3508,8.7948 17.2476,8.7056 17.1472,8.6184 17.0648,8.4784 17.0648,8.3944 c 0,-0.134 -0.0852,-0.1508 -0.7016,-0.136 l -0.7016,0.0172 0.012,0.6916 c 0.0208,1.2112 0.2012,1.5256 0.7576,1.3228 0.2548,-0.0932 0.8808,-0.0228 1.0588,0.1184 0.06441,0.0512 0.1576,0.2368 0.2068,0.4128 0.0496,0.1756 0.2328,0.48 0.408,0.6756 0.3544,0.3968 0.382,0.5516 0.1788,1.0172 -0.1772,0.4064 -0.3684,0.3596 -0.3304,-0.0812 l 0.028,-0.328 -0.3,0.056 c -0.166,0.0316 -0.374,0.154 -0.4672,0.2752 -0.1328,0.1724 -0.1948,0.1976 -0.2944,0.1188 -0.0696,-0.0552 -0.126,-0.1716 -0.126,-0.258 0,-0.0864 -0.0856,-0.1824 -0.1896,-0.214 -0.1044,-0.0316 -0.2472,-0.1888 -0.3172,-0.35 -0.1124,-0.2576 -0.1096,-0.3364 0.02119,-0.6492 0.1324,-0.3172 0.1336,-0.3696 0.01161,-0.4868 -0.112,-0.1072 -0.17,-0.1108 -0.3172,-0.0224 -0.148,0.0884 -0.218,0.082 -0.394,-0.036 -0.1172,-0.0788 -0.3224,-0.144 -0.4552,-0.144 -0.27,0 -0.3516,-0.1312 -0.3516,-0.5656 0,-0.4012 -0.2392,-0.5468 -0.8088,-0.4944 C 13.5976,9.3708 13.5104,9.3448 13.1916,9.0992 12.9944,8.9476 12.6832,8.5828 12.4992,8.2876 12.3152,7.9924 12.1172,7.684 12.0592,7.6024 11.976,7.4844 11.9964,7.3712 12.1592,7.05 l 0.2056,-0.404 -0.4344,0.0588 c -0.7728,0.1044 -0.9292,0.2044 -0.5968,0.3828 0.1296,0.0692 0.1352,0.1048 0.0352,0.2204 -0.0656,0.0752 -0.0964,0.1948 -0.068,0.2656 C 11.32919,7.644 11.2932,7.8104 11.2212,7.9428 11.1488,8.0756 11.0884,8.2616 11.086,8.3572 11.0784,8.6552 10.568,8.8924 9.9992,8.8608 9.1376,8.8132 9.0676,8.8268 8.7616,9.1108 8.3792,9.466 8.33,9.6312 8.508,9.9608 c 0.1724,0.32 0.4788,0.4476 1.0092,0.4212 0.4744,-0.0236 0.528,0.0184 0.4196,0.332 -0.09239,0.2664 -0.402,0.3688 -0.612,0.2024 C 9.1632,10.788 8.606,10.8872 8.4352,11.0752 8.3636,11.1536 8.2572,11.36 8.1992,11.5328 8.0992,11.8312 8.07,11.8496 7.622,11.8928 7.1748,11.9364 7.1316,11.922 6.81,11.6256 6.4512,11.2952 6.3904,11.0424 6.5632,10.6072 6.64,10.4144 6.6968,10.3828 6.9016,10.4204 c 0.4056,0.074 0.5656,-0.0668 0.5656,-0.5 0,-0.21 -0.0408,-0.4064 -0.0908,-0.436 C 7.3268,9.4548 7.286,9.3436 7.286,9.2368 7.286,9.13 7.2348,8.9924 7.1728,8.932 7.082,8.844 7.0952,8.7968 7.24,8.6944 7.3392,8.6244 7.5024,8.5772 7.6024,8.5892 7.702,8.6012 7.9776,8.558 8.2148,8.4936 8.5576,8.4012 8.6584,8.3312 8.7048,8.1508 8.7928,7.8084 9.0076,7.5336 9.1876,7.5336 9.472,7.5336 9.478,6.8648 9.201595,5.892 9.1608,5.7484 9.0484,5.6572 8.85,5.608 8.6892,5.568 8.5144,5.4584 8.4616,5.36408 8.4092,5.26976 8.3128,5.19296 8.2476,5.19296 8.1824,5.19296 8.0548,5.11488 7.9648,5.01952 7.874,4.92352 7.6864,4.84608 7.5436,4.84608 7.2056,4.84608 7.2,4.61336 7.5352,4.49064 7.8892,4.36088 8.4404,4.53096 8.5736,4.81092 8.754,5.19056 8.9544,5.03216 9.0188,4.4586 9.0984,3.7492 9.3432,3.54532 10.1148,3.54532 h 0.5548 L 10.4264,3.30236 C 10.3508,3.22652 10.288,3.13384 10.2444,3.04296 Z m 2.876,0.25156 c -0.01559,0.01408 -0.03079,0.0256 -0.04599,0.0414 -0.1856,0.18944 -0.2728,0.21644 -0.5596,0.17268 -0.5008,-0.07636 -0.4364,0.12528 0.118,0.36876 0.2996,0.13164 0.4924,0.28172 0.558,0.43356 0.316,0.73264 0.5336,1.12708 0.6428,1.16708 0.2208,0.0812 0.3524,-0.08176 0.4016,-0.49832 0.0564,-0.47792 0.218,-0.57924 0.5084,-0.31796 0.1128,0.1014 0.2704,0.18436 0.35,0.18436 0.2484,0 0.432,0.09972 0.432,0.2344 0,0.07096 0.084,0.24196 0.1868,0.38032 0.1516,0.2036 0.2544,0.2524 0.5376,0.2524 0.3476,0 0.5608,0.0652 0.996,0.3056 0.0068,0.00358 0.0136,0.0048 0.0204,0.0084 A 8,8 0 0 0 13.1204,3.29452 Z m -10.1188,7.6712 a 8,8 0 0 0 -0.00155,0.0344 8,8 0 0 0 0.15624,1.5368 c 0.28984,0.118 0.36992,0.0712 0.4,-0.1984 0.01556,-0.1396 0.08844,-0.2976 0.16252,-0.3524 0.11444,-0.0844 0.093799,-0.1276 -0.14064,-0.2876 -0.15176,-0.1036 -0.30132,-0.2844 -0.33204,-0.4016 -0.02976,-0.1136 -0.1304,-0.2376 -0.24452,-0.3312 z m 2.51804,2.6444 c -0.0748,-0.0076 -0.16492,0.0324 -0.26492,0.1284 -0.21156,0.2024 -0.1796,0.6092 0.06016,0.77 0.27476,0.1844 0.38076,0.1308 0.41556,-0.2092 0.0428,-0.4192 -0.0468,-0.672 -0.2108,-0.6892 z m 1.3576,1.2096 c -0.0816,0.0027 -0.1716,0.0612 -0.2616,0.1844 -0.0956,0.1304 -0.1216,0.2988 -0.0852,0.5544 0.0452,0.3144 0.0256,0.3816 -0.1388,0.466 -0.2116,0.108 -0.2568,0.4296 -0.0836,0.5952 0.172,0.1648 0.336,0.1216 0.3952,-0.104 0.084,-0.3216 0.5548,-0.3592 0.8764,-0.0704 0.1372,0.1232 0.2492,0.1856 0.2492,0.1384 0,-0.0472 -0.1428,-0.2188 -0.3172,-0.3804 -0.2668,-0.248 -0.3164,-0.3536 -0.3164,-0.6728 0,-0.4504 -0.138,-0.7164 -0.318,-0.7108 z m -2.22956,1.0328 a 8,8 0 0 0 0.18516,0.2336 c -0.05452,-0.0844 -0.11676,-0.1652 -0.18516,-0.2336 z m 2.69596,1.228 c -0.0404,0.014 -0.0576,0.0648 -0.0576,0.154 0,0.0904 -0.0576,0.1852 -0.128,0.2108 -0.0936,0.0344 -0.1152,0.1428 -0.0792,0.4016 0.0068,0.0484 0.0088,0.0872 0.0112,0.1276 a 8,8 0 0 0 0.3328,0.1708 c -0.0056,-0.1384 0.0196,-0.3012 0.092,-0.5052 0.1228,-0.3464 0.1272,-0.4332 0.0272,-0.494 -0.0936,-0.0568 -0.1576,-0.07961 -0.1984,-0.0656 z"/>
 <path style="opacity:0.2" d="M 1.0419922,10.657227 A 10,10 0 0 0 1,11.5 10,10 0 0 0 1.1171875,12.961914 C 2.9379286,13.872888 6.7676105,15.5 11,15.5 c 4.230182,0 8.057964,-1.624877 9.879883,-2.536133 A 10,10 0 0 0 21,11.5 10,10 0 0 0 20.958008,10.657227 C 20.879735,10.703151 16.094405,13.5 11,13.5 5.905595,13.5 1.1202653,10.703151 1.0419922,10.657227 Z"/>
 <path style="fill:#cba606" d="M 1.0419922,10.157227 A 10,10 0 0 0 1,11 10,10 0 0 0 1.1171875,12.461914 C 2.9379286,13.372888 6.7676105,15 11,15 c 4.230182,0 8.057964,-1.624877 9.879883,-2.536133 A 10,10 0 0 0 21,11 10,10 0 0 0 20.958008,10.157227 C 20.879735,10.203151 16.094405,13 11,13 5.905595,13 1.1202653,10.203151 1.0419922,10.157227 Z"/>
</svg>
